build/controls/vbo-light/unfullscreen.svg

<svg xmlns="http://www.w3.org/2000/svg" width="1000" height="1000"><path fill="#222" d="M876.329 0h-748.025c-68.85 0-124.671 55.821-124.671 124.671v748.025c0 68.85 55.821 124.671 124.671 124.671h748.025c68.85 0 124.671-55.821 124.671-124.671v-748.025c0-68.85-55.821-124.671-124.671-124.671zm0 810.361c0 34.394-27.942 62.335-62.335 62.335h-623.355c-34.411 0-62.335-27.941-62.335-62.335v-623.355c0-34.41 27.925-62.335 62.335-62.335h623.355c34.393 0 62.335 27.926 62.335 62.335v623.355z"/><path fill="#222" d="M295.16 662.436l-103.913 103.852v44.073h44.135l103.852-103.854 103.897 103.854v-251.899h-251.884l103.913 103.974z"/><path fill="#222" d="M562.704 558.462v251.899l103.82-103.854 103.883 103.854h44.193v-43.951l-104-103.974 104.002-103.974h-251.898z"/><path fill="#222" d="M814.602 187.052h-44.072l-103.913 103.898-103.913-103.944v251.914h251.896l-103.911-103.897 103.911-103.898.002-44.073z"/><path fill="#222" d="M235.26 187.052h-44.013v44.119l103.913 103.882-103.913 103.882h251.884v-251.883l-103.898 103.928-103.973-103.928z"/></svg>

<?xml version="1.0" encoding="utf-8"?>
<!-- Generator: Adobe Illustrator 16.0.0, SVG Export Plug-In . SVG Version: 6.00 Build 0)  -->
<!DOCTYPE svg PUBLIC "-//W3C//DTD SVG 1.1//EN" "http://www.w3.org/Graphics/SVG/1.1/DTD/svg11.dtd">
<svg version="1.1" id="Calque_1" xmlns="http://www.w3.org/2000/svg" xmlns:xlink="http://www.w3.org/1999/xlink" x="0px" y="0px"
	 width="1000px" height="1000px" viewBox="0 0 1000 1000" enable-background="new 0 0 1000 1000" xml:space="preserve">
<path fill="#222222" d="M876.329,0H128.304C59.454,0,3.633,55.821,3.633,124.671v748.025c0,68.85,55.821,124.671,124.671,124.671
	h748.025c68.85,0,124.671-55.821,124.671-124.671V124.671C1001,55.821,945.179,0,876.329,0z M876.329,810.361
	c0,34.394-27.942,62.335-62.335,62.335H190.639c-34.411,0-62.335-27.941-62.335-62.335V187.006c0-34.41,27.925-62.335,62.335-62.335
	h623.355c34.393,0,62.335,27.926,62.335,62.335V810.361L876.329,810.361z"/>
<path fill="#222222" d="M295.16,662.436L191.247,766.288v44.073h44.135l103.852-103.854l103.897,103.854V558.462H191.247
	L295.16,662.436z"/>
<path fill="#222222" d="M562.704,558.462v251.899l103.82-103.854l103.883,103.854h44.193V766.41L710.6,662.436l104.002-103.974
	H562.704z"/>
<path fill="#222222" d="M814.602,187.052H770.53L666.617,290.95L562.704,187.006V438.92h251.896L710.69,335.023l103.91-103.898
	L814.602,187.052L814.602,187.052z"/>
<path fill="#222222" d="M235.26,187.052h-44.013v44.119L295.16,335.053L191.247,438.935h251.884V187.052L339.233,290.98
	L235.26,187.052z"/>
</svg>
